X:43
T:Colonel McBain
Z: id:dc-reel-40
M:C
L:1/8
K:E Dorian
EF|GEBE GEBE|FDAD FDAD|GEBE GEBE|AGFG E2EF|!
GEBE GEBE|ABAG FDDF|G2GF GBdB|AGFG E2:|!
EF|G2GF GBdB|ABAG FDD2|Beed efge|fedf e2ed|!
efed BcdB|ABAG FDDF|G2GF GBdB|AGFG E2:|!

